X:522
T:Legacy Jig, The
R:jig
Z:id:hn-jig-522
M:6/8
L:1/8
K:G
~G3 ~B3 | ~g3 gab | ~G3 ~B3 | dBA ABA |
~G3 ~B3 | ~g3 gab | age edB |1 dBA ABA :|2 dBA ABd ||
|: ~e3 edB | ded dBd | efe edB | dBA ABd |
efe edB | ded def | ~g3 ege |1 dBA ABd :|2 dBA ABA ||

